X: 1446
T: Anascaul, The
R: polka
M: 2/4
K: Edorian
|:D|EF GA|Bc df|e>d BA|FE DF|
E>F GA|Bc dB|ed B/A/F|E2- E:|
|:d|e/f/e/d/ B2|B/c/d eg/f/|e>d BA|FE D2|
EE/F/ G>A|Bc dc/B/|e>d AF|E2- E:|

